public/static/img/bottom/shouye2.svg

<svg xmlns="http://www.w3.org/2000/svg" width="28" height="28" viewBox="0 0 28 28" fill="none">
  <path d="M24.5 22.3332C24.5 22.9776 23.9777 23.4999 23.3333 23.4999H4.66667C4.02234 23.4999 3.5 22.9776 3.5 22.3332V10.0705C3.5 9.71044 3.66622 9.37058 3.9504 9.14955L13.2838 1.89028C13.7051 1.56261 14.2949 1.56261 14.7162 1.89028L24.0495 9.14955C24.3337 9.37058 24.5 9.71044 24.5 10.0705V22.3332ZM8.16667 16.4999V18.8332H19.8333V16.4999H8.16667Z" fill="#00A609"/>
  <path d="M8.16666 16.5V18.8333H19.8333V16.5H8.16666Z" fill="white"/>
</svg>

<svg xmlns="http://www.w3.org/2000/svg" width="28" height="28" fill="none"><path d="M24.5 22.333c0 .645-.522 1.167-1.167 1.167H4.667A1.167 1.167 0 0 1 3.5 22.333V10.071c0-.36.166-.7.45-.921l9.334-7.26a1.166 1.166 0 0 1 1.432 0l9.333 7.26c.285.22.451.56.451.92v12.263ZM8.167 16.5v2.333h11.666V16.5H8.167Z" fill="#00A609"/><path d="M8.167 16.5v2.333h11.666V16.5H8.167Z" fill="#fff"/></svg>
